!!!ONB: MCCC : IJB0067_01 : Extracted Monophonic Melody
!!!COM: Bach, Johann Sebastian
!!!OPR: Cello Suite No.5
!!!OMV: 1
!!!SCT: BWV 1011
!!!ODT: 1717///
**kern
*staff1
*IP1
*clefF4
*k[b-e-a-]
*c:
*M4/4
=1-
[4C
16C]
16GG
16AA
16BB
16C
16D
16E-
16F
16E-
16D
16E-
16C
=2
4.B-
8B-
8A
16B-
16F
8E-
16F
16D
=3
2E-
[4C
16C]
16C
16D
16E-
=4
4.D
8D
[4E
16E]
16AA-
16BB-
16GG
=5
4F
4CC
4.d
8d
=6
[4d
16d]
16d
16c
16B-
8.c
16A
8.B-
16c
=7
4B-
4CC
[8F
32F]
32E-
32D
32E-
8.F
16C
=8
4.F
16A
16B-
8.A
16F
8.E-
16D
=9
[4E-
16E-]
32F
32E-
16D
16E-
4.E-
8D
=10
[4D
16D]
16D
16E
16F#
16A
16B
16c
16d
16c
16B
16c
16A
=11
4.f
8f
8.e
32d
32c
8.B
16c
=12
4.c#
16E-
16D
8.E-
16A
8.d
16E-
=13
[4d
16d]
16c
16d
16B
8.c
16A
8.e-
16F
=14
[4e-
16e-]
16d
16c
16B-
8.A
16B-
8.c
16A
=15
4B-
8.FF
16GG
8.AA-
16BB-
8.C
16EE-
=16
[4B-
16B-]
16c
16B-
16c
4.c
8B-
=17
[4A
16A]
16F
16E-
16D
16E-
16F
16A
16B-
16c
16d
16e
16c
=18
4f
8.CC
16e
8.d
16c
8.B
16A
=19
[4e
16e]
16C
16BB-
16AA
8.BB-
16G
8.AA
16GG
=20
8.FF#
16B
8.c
16d
8.D
16d
8.c
16B
=21
[4c
16c]
16G
16F
16E-
16D
16C
16BB-
16AA
16BB-
16GG
16AA
16BB-
=22
[4c
16c]
16D
16C
16BB-
16C
16c
16B
16c
16d
16B
16c
16d
=23
16F#
16G
16F#
16G
16B
16F#
16G
16B
16C
16D
16C
16D
16E-
16C
16D
16E-
=24
16AA
16BB-
16AA
16BB-
16C
16AA
16BB-
16C
16DD
16EE
16FF#
16GG
16AA
16BB-
16C
16AA
=25
16BB-
16D
16E
16F#
16A
16B
16c
16d
[4e
16e]
16d
16c
16B
=26
8.c
16F#
8.G
16C
4A
8.F#
16G
=27||
*M3/8
4G
8A
=28
8B-
8C
8D
=29
8E-
16G
16F
16G
16E-
=30
8F
8AA
8BB
=31
8C
16E-
16D
16E-
16C
=32
16D
16E-
16F
16A
8B-
=33
8BB
16GG
16F
16E-
16D
=34
16E-
16F
16D
16E-
16F
16D
=35
16E-
16D
16E-
16A
16d
16e
=36
8f
8A
8B
=37
8c
16e
16d
16e
16c
=38
8d
8E
8F#
=39
8G
16c
16B
16c
16A
=40
16B
16c
16d
16e
16A
16f
=41
16F#
16f
16e
16d
16c
16B
=42
16c
16d
16B
16c
16d
16B
=43
16c
16A
16D
16E-
16F
16D
=44
16E
16d
16A
16B-
16c
16A
=45
16B-
16F
16C
16D
16E-
16C
=46
16D
16E-
16F
16G
16A-
16F
=47
16G
16F
16E-
16D
16C
16BB-
=48
8AA-
8C
8D
=49
8E-
16GG
16FF
16GG
16EE-
=50
8FF
8AA
8BB
=51
8C
16EE-
16DD
16EE-
16CC
=52
16DD
16EE-
16FF
16GG
16AA-
16FF
=53
16BB
16C
16D
16E-
16F
16D
=54
16E-
16F
16D
16E-
16F
16D
=55
16E-
16D
16C
16D
16E-
16F
=56
16G
16F
8G
8B
=57
8c
16D
16C
16D
16BB-
=58
16C
16D
8E
8F#
=59
8G
16BB-
16AA
16BB-
16GG
=60
16AA
16BB-
16C
16D
16E-
16C
=61
16F#
16A
16B
16c
16d
16B
=62
16c
16d
16B
16c
16d
16B
=63
16c
16A
16B
16c
16d
16e
=64
16f
16C
16D
16E-
16F
16A
=65
16B-
16F
16A
16B-
16c
16d
=66
16e
16BB-
16C
16D
16E-
16F
=67
16G
16E-
16F
16A
16B-
16c
=68
16d
16c
16B-
16A
16F
16E-
=69
16B-
16A
16F
16E-
16D
16C
=70
16F
16E-
16D
16C
16BB-
16AA
=71
16E-
16D
16C
16BB-
8c
=72
8d
16E-
16G
16F
16B-
=73
16A
16d
16c
16B-
16c
16A
=74
8B-
16C
16E-
16D
16F
=75
16E-
16B-
16A
16F
16A
16E-
=76
16F
16A
16B-
16c
8d
=77
16E-
16D
16C
16BB-
16C
16D
=78
16E-
16F
8.F
16E-
=79
8E-
16G
16F
16G
16E-
=80
8c
16D
16c
16E
16c
=81
16F
16c
16B-
16A
16B-
16F
=82
8d
16E-
16d
16F
16d
=83
16G
16d
16c
16B-
16c
16A
=84
8f
16G
16f
16A-
16f
=85
16B-
16e
16F
16e
16G
16e
=86
16A-
16d
16E-
16d
16F
16d
=87
16G
16d
16c#
16B
16c#
16A
=88
16B-
16c
8d
8e
=89
16f
16A-
16G
16F
16G
16E-
=90
16F
16A
16B
16F
16c#
16F
=91
16d
16F
16E-
16D
16E-
16C
=92
16D
16E-
16F
16D
16BB
16C
=93
16D
16BB
16GG
16AA
16BB
16FF
=94
16EE-
16GG
16C
16FF
16GG
16BB
=95
16AA
16C
16F
16BB
16C
16E-
=96
16D
16F
16c
16E
16F
16B-
=97
16F
16A
16E-
16A
16D
16A
=98
16E-
16A
16E-
16d
16E-
16c
=99
16E-
16B
16F
16B
16E-
16B
=100
16D
16B-
16D
16c
16D
16B-
=101
16E-
16B-
16A
16F
16A
16c
=102
8f
8GG
8AA
=103
8BB-
16e
16d
16e
16c
=104
8d
8EE
8FF#
=105
8GG
16c
16B
16c
16A
=106
16B
16c
16d
16B
16F#
16A
=107
16B
16F#
16D
16E
16F#
16C
=108
16BB-
16D
16G
16C
16D
16F#
=109
4GG
8D
=110
8D
16C
16BB-
16C
16AA
=111
16BB-
16D
16G
16E
16F
16D
=112
16E
16C
16BB-
16AA-
16BB-
16GG
=113
16AA-
16C
16F
16D
16E-
16C
=114
8BB
16D
16E-
16D
16E-
=115
16F
16A
16F
16A
16B-
16F
=116
16c#
16F
16e
16B-
16A
16F
=117
16E-
16G
16D
16E-
16F
16D
=118
16E-
16C
16BB
16C
16D
16BB
=119
16C
16E-
16D
16E-
16F
16D
=120
16E
16BB-
16AA-
16BB-
16C
16AA-
=121
16BB-
16F
16E
16F
16G
16E
=122
16F
16AA-
16GG
16AA-
16BB-
16GG
=123
16AA-
16G
16F
16G
16A-
16F
=124
16G
16EE
16DD
16EE
16FF
16DD
=125
16EE
16FF
16GG
16AA-
16BB-
16GG
=126
16AA-
16GG
16AA-
16BB-
16C
16D
=127
16E
16F
16G
16B-
16c
16A
=128
16B-
16A
16F
16E
16F
16A
=129
16B-
16c
16d
16e-
16c
16d
=130
16e-
16c
16F
16B-
16A
16c
=131
16B-
16e-
16d
16c
16d
16B-
=132
16c
16A
16D
16F
16E
16G
=133
16F
16c
16B-
16A
16B-
16F
=134
16A
16B-
16c
16A
16E
16F
=135
16G
16E
16C
16D
16E
16BB-
=136
16AA-
16C
16F
16BB-
16C
16E
=137
8F
8FF
8B-
=138
8B-
16F
16D
16F
16D
=139
16BB-
16A-
16F
16D
16F
16D
=140
16BB-
16d
16c
16B-
16A
16F
=141
16G
16F
16E-
16G
16F
16B-
=142
8A
16E-
16C
16E-
16C
=143
16AA-
16G
16E-
16C
16E-
16C
=144
16AA-
16c
16B-
16A
16F
16E-
=145
16F
16E-
16D
16F
16E-
16G
=146
8F
16e
16c#
16e
16c#
=147
16A
16F
16D
16BB
16D
16BB
=148
16GG
16B-
16A
16F
16E-
16D
=149
16E-
16D
16E-
16F
16G
16GG
=150
8AA-
8d
8e
=151
8f
16GG
16FF
16GG
16EE-
=152
8FF
8B
8c#
=153
8d
16EE-
16DD
16EE-
16CC
=154
16DD
16C
16BB
16AA
16GG
16F
=155
16E-
16D
16d
16c#
16B
16A
=156
16d
16A
16B-
16F
16G
16D
=157
16E-
16D
16C
16E-
16D
16F
=158
16E-
16d
16A
16E-
16F
16D
=159
16E-
16D
16C
16E-
16GG
16BB-
=160
16AA
16C
16F
16D
16E-
16C
=161
16D
16C
16BB-
16D
16C
16E-
=162
16D
16F
16c
16A
16B-
16F
=163
16G
16F
16E-
16G
16F
16B-
=164
16A
16c
16f
16d
16e
16c#
=165
16d
16c
16B-
16d
16A
16d
=166
16F
16f
16e
16c#
16d
16e
=167
16G
16f
16e
16c#
16d
16e
=168
16A-
16f
16e
16c#
16d
16e
=169
16F#
16f
16e
16c#
16d
16e
=170
16A
16f
16e
16c#
16d
16e
=171
8GG
16F
16E-
16F
16D
=172
16E-
16A
16d
16E-
16F
16E-
=173
16D
16F
16c#
16B-
16A
16F
=174
16E-
16A
16d
16E-
16F
16E-
=175
16D
16d
16c#
16e
8A
=176
8B-
8C
8D
=177
8E-
16G
16F
16G
16E-
=178
8F
8AA
8BB
=179
8C
16E-
16D
16E-
16C
=180
16D
16E-
16F
16A
16B-
16F
=181
16d
16c#
16B
16A
16d
16c#
=182
16d
16e
8.e
16d
=183
16d
16c
16B-
16A
16B-
16F
=184
16E
16e-
16d
16c
16B-
16A
=185
16B-
16A
16F
16D
16E-
16C
=186
16BB
16A-
16G
16F
16E-
16D
=187
16E-
16D
16C
16AA
16BB-
16GG
=188
16FF#
16E-
16D
16C
16BB
16AA
=189
16BB
16AA
16GG
16BB
16D
16F
=190
16B-
16A
16A
16F
16F
16E-
=191
16E-
16C
16GG
16C
16E-
16A
=192
16d
16c
16c
16B
16B
16d
=193
16F#
16C
16GG
16C
16F#
16B
=194
16d
32e
32f
16e
16d
16d
16c#
=195
16c#
16e
16c#
16A
16D
16GG
=196
8FF
16d
16c#
16B
16A
=197
8d
8EE-
8FF
=198
8GG
16c
16B-
16c
16A
=199
8B-
8CC
8DD
=200
8EE-
16G
16F
16G
16E-
=201
8F
8AA
8BB
=202
8C
16E-
16D
16E-
16C
=203
8FF
16e-
16d
16c#
16d
=204
16B-
16A
16F#
16G
16E-
16D
=205
16C
16E-
16D-
16C
16BB
16C
=206
16FF#
16GG
16AA
16BB
16C
16D
=207
16E-
16D
16C
16D
16E-
16F
=208
16G
16D
16E-
16C
16GG
16BB
=209
8CC
16BB-
16GG
16BB-
16GG
=210
16AA-
16C
16F
16AA-
16BB-
16AA-
=211
16GG
16BB-
16E
16D-
16C
16BB-
=212
16AA-
16C
16F
16AA-
16BB-
16AA-
=213
16GG
16BB-
16E
16D-
16C
16BB-
=214
16AA-
16C
16F
16D
16E-
16C
=215
16BB
16E-
16D
16C
16BB
16AA
=216
16GG
16G
16F
16E-
16D
16C
=217
8c
8r
8r
=218
16FF
16B
16A
16F
16E-
16D
=219
8E-
8r
8r
=220
16GG
16f
16e
16c#
16d
16A
=221
16B-
16F#
16G
16D
16E-
16BB
=222
16C
16FF#
8GG
8c#
=223
4.d
==
*-
